icon-themes/breeze_svg/cmd/32/extrusiondirectionfloater.svg

<svg viewBox="0 0 32 32" xmlns="http://www.w3.org/2000/svg"><path d="m20.941406 4-15.5292966 9h13.5878906v14l9-15.5v-7.5z" fill="#b3b3b3"/><path d="m20 4-16 9v15h15l9-16v-8zm.263672 1h.736328 5.292969l-8 8h-12.2500002zm6.736328.7070312v5.2929688.736328l-8 14.220703v-12.25zm-22 8.2929688h13v13h-13z" fill="#4d4d4d"/></svg>

<svg xmlns="http://www.w3.org/2000/svg" viewBox="0 0 32 32">
 <path 
     style="fill:#b3b3b3" 
     d="M 20.941406 4 L 5.4121094 13 L 19 13 L 19 27 L 28 11.5 L 28 4 L 20.941406 4 z "
     />
 <path 
     style="fill:#4d4d4d" 
     d="M 20 4 L 4 13 L 4 28 L 19 28 L 28 12 L 28 4 L 20 4 z M 20.263672 5 L 21 5 L 26.292969 5 L 18.292969 13 L 6.0429688 13 L 20.263672 5 z M 27 5.7070312 L 27 11 L 27 11.736328 L 19 25.957031 L 19 13.707031 L 27 5.7070312 z M 5 14 L 18 14 L 18 27 L 5 27 L 5 14 z "
     />
</svg>
